X:32
T:Ostap's Air
C:www.antplat.ru
R:Air
M:3/4
L:1/8
Q:50
K:D
|:DE|F2A2FA|B2 +breath+d2de|f2e2dA|+breath+B4dB|
F2A2FA|B2 +breath+d2de|f2dA ef|+breath+d4:|

